assets/icons/24px/stroke/locked-24px.svg

<svg width="24" height="24" viewBox="0 0 24 24" fill="none" xmlns="http://www.w3.org/2000/svg">
<path fill-rule="evenodd" clip-rule="evenodd" d="M7.93417 9C7.95604 9 7.97799 9 8 9L16.0658 9C16.9523 8.99995 17.7161 8.99991 18.3278 9.08215C18.9833 9.17028 19.6117 9.36902 20.1213 9.87868C20.631 10.3883 20.8297 11.0167 20.9179 11.6722C21.0001 12.2839 21.0001 13.0477 21 13.9341V17.0659C21.0001 17.9523 21.0001 18.7161 20.9179 19.3278C20.8297 19.9833 20.631 20.6117 20.1213 21.1213C19.6117 21.631 18.9833 21.8297 18.3278 21.9179C17.7161 22.0001 16.9523 22.0001 16.0658 22H7.93417C7.04769 22.0001 6.28387 22.0001 5.67221 21.9179C5.0167 21.8297 4.38835 21.631 3.87868 21.1213C3.36902 20.6117 3.17028 19.9833 3.08215 19.3278C2.99991 18.7161 2.99995 17.9523 3 17.0658L3 14C3 13.978 3 13.956 3 13.9342C2.99995 13.0477 2.99991 12.2839 3.08215 11.6722C3.17028 11.0167 3.36902 10.3883 3.87868 9.87868C4.38835 9.36902 5.0167 9.17028 5.67221 9.08215C6.28387 8.99991 7.04769 8.99995 7.93417 9ZM5.93871 11.0643C5.50497 11.1226 5.36902 11.2168 5.2929 11.2929C5.21677 11.369 5.12263 11.505 5.06431 11.9387C5.00213 12.4012 5 13.0289 5 14V17C5 17.9711 5.00213 18.5988 5.06431 19.0613C5.12263 19.495 5.21677 19.631 5.2929 19.7071C5.36902 19.7832 5.50497 19.8774 5.93871 19.9357C6.40122 19.9979 7.02893 20 8 20H16C16.9711 20 17.5988 19.9979 18.0613 19.9357C18.495 19.8774 18.631 19.7832 18.7071 19.7071C18.7832 19.631 18.8774 19.495 18.9357 19.0613C18.9979 18.5988 19 17.9711 19 17V14C19 13.0289 18.9979 12.4012 18.9357 11.9387C18.8774 11.505 18.7832 11.369 18.7071 11.2929C18.631 11.2168 18.495 11.1226 18.0613 11.0643C17.5988 11.0021 16.9711 11 16 11H8C7.02893 11 6.40122 11.0021 5.93871 11.0643Z" fill="white"/>
<path fill-rule="evenodd" clip-rule="evenodd" d="M9.94197 4.4744C9.44699 4.78195 9 5.32638 9 6.50006L9 9.99993L7 9.99998L7 6.50006C7 4.67368 7.77196 3.46808 8.88646 2.77561C9.92347 2.13128 11.1444 2 12 2C12.8564 2 14.0486 2.13222 15.0634 2.68394C16.1493 3.27426 17 4.3393 17 6V10H15V6C15 5.1607 14.6318 4.72574 14.1082 4.44106C13.5135 4.11778 12.7057 4 12 4C11.2935 4 10.5144 4.11872 9.94197 4.4744Z" fill="white"/>
</svg>

<svg width="24" height="24" fill="none" xmlns="http://www.w3.org/2000/svg"><path fill-rule="evenodd" clip-rule="evenodd" d="M7.934 9H16.066c.886 0 1.65 0 2.262.082.655.088 1.284.287 1.793.797.51.51.709 1.138.797 1.793.082.612.082 1.376.082 2.262v3.132c0 .886 0 1.65-.082 2.262-.088.655-.287 1.284-.797 1.793-.51.51-1.138.709-1.793.797-.612.082-1.376.082-2.262.082H7.934c-.886 0-1.65 0-2.262-.082-.655-.088-1.284-.287-1.793-.797-.51-.51-.709-1.138-.797-1.793C3 18.716 3 17.952 3 17.066V14v-.066c0-.886 0-1.65.082-2.262.088-.655.287-1.284.797-1.793.51-.51 1.138-.709 1.793-.797C6.284 9 7.048 9 7.934 9zM5.94 11.064c-.434.059-.57.153-.646.229-.076.076-.17.212-.229.646C5.002 12.4 5 13.029 5 14v3c0 .971.002 1.599.064 2.061.059.434.153.57.229.646.076.076.212.17.646.229C6.4 19.998 7.029 20 8 20h8c.971 0 1.599-.002 2.061-.064.434-.059.57-.153.646-.229.076-.076.17-.212.229-.646.062-.462.064-1.09.064-2.061v-3c0-.971-.002-1.599-.064-2.061-.059-.434-.153-.57-.229-.646-.076-.076-.212-.17-.646-.229C17.6 11.002 16.971 11 16 11H8c-.971 0-1.599.002-2.061.064z" fill="#fff"/><path fill-rule="evenodd" clip-rule="evenodd" d="M9.942 4.474C9.447 4.782 9 5.326 9 6.5V10H7V6.5c0-1.826.772-3.032 1.886-3.724C9.923 2.13 11.144 2 12 2c.856 0 2.049.132 3.063.684C16.15 3.274 17 4.339 17 6v4h-2V6c0-.84-.368-1.274-.892-1.559C13.513 4.118 12.706 4 12 4c-.707 0-1.486.119-2.058.474z" fill="#fff"/></svg>
